packages/connectors/hull-outreach/assets/picture.svg

<svg height="360" viewBox="0 0 640 360" width="640" xmlns="http://www.w3.org/2000/svg"><g fill="none" fill-rule="evenodd"><path d="m0 0h640v360h-640z" fill="#5952ff"/><path d="m357.816791 31.6163607c2.122139 2.2317998 3.183209 5.2541291 3.183209 9.0742184v20.1344014h-7.868796v-17.8447579c0-2.251081-.641465-4.0273623-1.919571-5.3360743-1.28293-1.3038917-3.02646-1.9570426-5.22818-1.9570426-2.604443.0385624-4.666294.925498-6.187965 2.6511661-1.52167 1.7280782-2.281299 3.9381867-2.281299 6.6303254v15.8563833h-7.81092v-44.7324023h7.81092v18.6304671c2.201719-4.2225845 6.067389-6.3700291 11.592185-6.4519742 3.684806 0 6.588278 1.1158999 8.710417 3.3452896zm-45.457187 3.5887148c-2.604444 0-4.714525.8821153-6.337479 2.6511661-1.620543 1.7690508-2.433226 4.0611044-2.433226 6.8737506 0 2.8921812.812683 5.2227972 2.435637 6.991848 1.620543 1.7690508 3.733036 2.6511661 6.33748 2.6511661 3.843965 0 6.728146-1.2653293 8.650128-3.7959878l4.86404 4.0370029c-1.437308 2.0881315-3.40726 3.7540665-5.705661 4.8251223-2.363291 1.1255405-5.105191 1.6871057-8.230524 1.6871057-3.163916 0-5.975751-.6820728-8.440326-2.0486284-2.425499-1.3296604-4.416408-3.3294792-5.734599-5.7602608-1.36251-2.4704048-2.044971-5.3119728-2.044971-8.5271142 0-3.256114.692107-6.129014 2.073909-8.6211101 1.329712-2.439587 3.330545-4.4476462 5.765949-5.7867725 2.462164-1.3665556 5.295702-2.0486284 8.500614-2.0486284 2.922765 0 5.536854.510952 7.839858 1.5352662 2.303003 1.0243142 4.174344 2.4824555 5.618846 4.3696037l-4.748287 4.5214433c-2.163135-2.3691784-4.965323-3.5549727-8.408976-3.5549727zm-21.609647-6.6327355v32.2526405h-7.81092v-5.123981c-1.111538 1.7235083-2.654439 3.1267835-4.475784 4.070745-1.823111.9447792-3.9139 1.4147587-6.277192 1.4147587-3.04334 0-5.715307-.6941235-8.020721-2.0799603-2.303004-1.3858369-4.094765-3.335649-5.377694-5.8470263-1.278107-2.5113774-1.919572-5.3963281-1.919572-8.6524421 0-3.2127313.639054-6.0567094 1.921983-8.5295243 1.278107-2.4704048 3.072279-4.3912951 5.377694-5.7554406 2.300592-1.3665556 4.953266-2.0510385 7.958022-2.0510385 2.363292 0 4.466139.4723896 6.308541 1.4171688 1.83307.9371012 3.386781 2.3402984 4.504723 4.0683349v-5.1818247h7.81092zm-10.634812 23.6628624c1.642247-1.5882895 2.58274-3.687531 2.823892-6.3001347v-2.2896434c-.241152-2.6150139-1.181645-4.7142554-2.82148-6.3001347-1.644658-1.5906997-3.725802-2.3812292-6.250665-2.3812292-2.681612 0-4.86404.9134472-6.547282 2.7427518-1.680831 1.8293046-2.544155 4.1888424-2.580328 7.0834338.036173 2.8921812.899497 5.2541291 2.580328 7.0834337 1.683242 1.8268945 3.86567 2.7427519 6.547282 2.7427519 2.524863 0 4.606007-.7953499 6.248253-2.3812292zm-31.091751-19.5029418c2.58274 2.9331537 3.875315 7.0521018 3.875315 12.3592543 0 1.0460055-.021703 1.8268944-.060288 2.3498972h-23.729375c.520889 2.2920536 1.591605 4.0900262 3.214559 5.396328 1.620543 1.3063019 3.614871 1.9594528 5.978163 1.9594528 1.618125.0050509 3.22097-.3128776 4.714525-.9351386 1.484917-.6096568 2.825578-1.5234478 3.935603-2.6824981l4.203283 4.4009358c-1.624046 1.7833398-3.624979 3.1829494-5.857587 4.0972566-2.303003.9664706-4.854393 1.4485008-7.658993 1.4485008-3.282081 0-6.175907-.6820728-8.679067-2.0486284-2.452085-1.3153988-4.466853-3.3172947-5.797299-5.7602608-1.36251-2.4704048-2.042559-5.3119728-2.042559-8.5271142s.689696-6.0687602 2.073909-8.5608563c1.339475-2.4501103 3.349526-4.468215 5.794887-5.8181045 2.483868-1.388247 5.305348-2.0799603 8.469265-2.0799603 5.129307 0 8.982919 1.4701921 11.565659 4.4009357zm-3.272435 9.4646629c-.081992-2.3715886-.863325-4.2587368-2.344-5.666265-1.480674-1.4075281-3.443653-2.1112922-5.886525-2.1112922-2.283711 0-4.196048.6941235-5.739422 2.0823704-1.540962 1.3858368-2.491102 3.2826257-2.850418 5.6951868zm-33.11743-12.2074147c1.861695-1.1062593 4.034476-1.6774651 6.518343-1.7184377v7.5967959c-3.3279-.2024527-5.978162.5712058-7.960433 2.3209754-1.982271 1.7473595-2.973407 4.1093075-2.973407 7.0810236v15.5551145h-7.808507v-32.2526405h7.808507v6.2085489c1.080362-2.0871907 2.553802-3.687531 4.413085-4.7913801zm-18.074357 28.8422768c-2.563447 1.5665982-5.247471 2.3523074-8.04966 2.3523074-2.763604 0-5.028023-.814631-6.788434-2.4414829-1.762822-1.6292621-2.643028-4.0297725-2.643028-7.2039414v-30.5028709l7.74822-.9254979v9.7876231h9.19031v5.7289289h-9.187898v14.5283902c0 1.4870631.277325 2.5427093.839209 3.1645282.561885.6242291 1.398683.9351386 2.522452.9351386 1.200938 0 2.72502-.4434678 4.565011-1.3279932l1.803818 5.9072801zm-31.950253-30.2594456h7.74822v18.0785425c0 10.5516411-7.340673 14.4753669-14.787452 14.4753669-7.449191 0-14.787452-3.9237258-14.787452-14.4753669v-18.0761324h7.750631v18.35571c0 4.0442333 3.007168 7.3244488 7.036821 7.3244488s7.036821-3.2778053 7.036821-7.3244488v-18.3581201zm-37.882597-7.6570497c3.346511 1.8154125 6.138298 4.5031661 8.078599 7.7775572 1.96539 3.2946764 2.944468 6.9532856 2.944468 10.9734175 0 4.0177217-.979078 7.6859715-2.942057 10.9999291-1.94137 3.2964228-4.730938 6.0128328-8.078598 7.8667328-3.424361 1.9281208-7.220097 2.8921812-11.384795 2.8921812-4.16711 0-7.958022-.9640604-11.382383-2.8921812-3.3487585-1.8532695-6.1392576-4.5697754-8.0810098-7.8667328-1.9629788-3.3139576-2.9444682-6.9822074-2.9444682-10.9999291 0-4.0201319.9814894-7.6787411 2.9420566-10.9734175 1.9407707-3.2748615 4.7334697-5.9626909 8.0810094-7.7775572 3.424361-1.8871482 7.217685-2.8319274 11.382384-2.8319274 4.167109 0 7.960433.9447792 11.384794 2.8319274zm-18.411969 6.3025448c-2.170789 1.2336819-3.974326 3.0220529-5.225768 5.1818246-1.2829296 2.1932374-1.9219829 4.613029-1.9219829 7.2666053 0 2.6511661.6511109 5.0854186 1.9533329 7.2931169 1.260177 2.1701791 3.061422 3.9770432 5.228179 5.2444885 2.182427 1.2870206 4.552953 1.9281208 7.118813 1.9281208 2.474952.0132473 4.905918-.6537628 7.027174-1.9281208 2.143593-1.2666232 3.915281-3.0755448 5.136542-5.2444885 1.264741-2.221149 1.917927-4.7376061 1.893045-7.2931169 0-2.6511661-.631819-5.0733679-1.893045-7.2641951-1.223559-2.1514827-2.995943-3.9403225-5.136542-5.1842348-2.127308-1.2571334-4.555847-1.9143152-7.027174-1.9016091-2.510266-.0135539-4.97864.6429183-7.150163 1.9016091zm-74.2073509-27.2178351c11.0568277 0 27.7638512 3.4031332 35.5410092 11.2072021 1.9702134 1.978734 4.5481303 5.8542568 4.5481303 11.5301623 0 10.0913022-8.1027135 25.5741122-17.0494596 34.5543348-4.6252989 4.6419508-11.9828522 10.7083008-21.8797379 10.7083008-9.6750257 0-17.0639287-6.5941731-19.2029486-8.7416176-8.19435128-8.2234352-14.0639955-20.7056072-14.0639955-32.3442263 0-7.3437301 2.08596641-13.7667825 7.40819517-19.1052669 4.92915073-4.94562983 13.42253073-7.8088892 24.69880693-7.8088892zm12.8468757 39.4325417c3.6058169-3.6111656 4.5771513-8.0583566 4.5771513-10.5060534 0-1.7742318-.4658678-4.3775223-2.6833986-6.5953121-3.4008351-3.4044814-7.1673764-4.3659107-11.2646838-4.3659107-5.1897675 0-8.6767881 1.6418611-10.9991392 3.9687987-1.8215432 1.8229999-3.3961764 4.6260075-3.3961764 8.60874 0 3.9804101 2.1196986 7.8261273 4.4304029 10.1368088 2.1336747 2.1365095 5.4879229 3.717991 8.8654646 3.717991s6.8645623-1.3538968 10.4703792-4.9650623z" fill="#fff" transform="translate(140 138)"/></g></svg>

<?xml version="1.0" encoding="UTF-8"?>
<svg width="640px" height="360px" viewBox="0 0 640 360" version="1.1" xmlns="http://www.w3.org/2000/svg" xmlns:xlink="http://www.w3.org/1999/xlink">
    <!-- Generator: Sketch 52.2 (67145) - http://www.bohemiancoding.com/sketch -->
    <title>outreach/picture</title>
    <desc>Created with Sketch.</desc>
    <g id="outreach/picture" stroke="none" stroke-width="1" fill="none" fill-rule="evenodd">
        <rect id="Rectangle" fill="#5952FF" x="0" y="0" width="640" height="360"></rect>
        <g id="outreachio" transform="translate(140.000000, 138.000000)" fill="#FFFFFF">
            <path d="M357.816791,31.6163607 C359.93893,33.8481605 361,36.8704898 361,40.6905791 L361,60.8249805 L353.131204,60.8249805 L353.131204,42.9802226 C353.131204,40.7291416 352.489739,38.9528603 351.211633,37.6441483 C349.928703,36.3402566 348.185173,35.6871057 345.983453,35.6871057 C343.37901,35.7256681 341.317159,36.6126037 339.795488,38.3382718 C338.273818,40.06635 337.514189,42.2764585 337.514189,44.9685972 L337.514189,60.8249805 L329.703269,60.8249805 L329.703269,16.0925782 L337.514189,16.0925782 L337.514189,34.7230453 C339.715908,30.5004608 343.581578,28.3530162 349.106374,28.2710711 C352.79118,28.2710711 355.694652,29.386971 357.816791,31.6163607 Z M312.359604,35.2050755 C309.75516,35.2050755 307.645079,36.0871908 306.022125,37.8562416 C304.401582,39.6252924 303.588899,41.917346 303.588899,44.7299922 C303.588899,47.6221734 304.401582,49.9527894 306.024536,51.7218402 C307.645079,53.490891 309.757572,54.3730063 312.362016,54.3730063 C316.205981,54.3730063 319.090162,53.107677 321.012144,50.5770185 L325.876184,54.6140214 C324.438876,56.7021529 322.468924,58.3680879 320.170523,59.4391437 C317.807232,60.5646842 315.065332,61.1262494 311.939999,61.1262494 C308.776083,61.1262494 305.964248,60.4441766 303.499673,59.077621 C301.074174,57.7479606 299.083265,55.7481418 297.765074,53.3173602 C296.402564,50.8469554 295.720103,48.0053874 295.720103,44.790246 C295.720103,41.534132 296.41221,38.661232 297.794012,36.1691359 C299.123724,33.7295489 301.124557,31.7214897 303.559961,30.3823634 C306.022125,29.0158078 308.855663,28.333735 312.060575,28.333735 C314.98334,28.333735 317.597429,28.844687 319.900433,29.8690012 C322.203436,30.8933154 324.074777,32.3514567 325.519279,34.2386049 L320.770992,38.7600482 C318.607857,36.3908698 315.805669,35.2050755 312.362016,35.2050755 L312.359604,35.2050755 Z M290.749957,28.57234 L290.749957,60.8249805 L282.939037,60.8249805 L282.939037,55.7009995 C281.827499,57.4245078 280.284598,58.827783 278.463253,59.7717445 C276.640142,60.7165237 274.549353,61.1865032 272.186061,61.1865032 C269.142721,61.1865032 266.470754,60.4923797 264.16534,59.1065429 C261.862336,57.720706 260.070575,55.7708939 258.787646,53.2595166 C257.509539,50.7481392 256.868074,47.8631885 256.868074,44.6070745 C256.868074,41.3943432 257.507128,38.5503651 258.790057,36.0775502 C260.068164,33.6071454 261.862336,31.6862551 264.167751,30.3221096 C266.468343,28.955554 269.121017,28.2710711 272.125773,28.2710711 C274.489065,28.2710711 276.591912,28.7434607 278.434314,29.6882399 C280.267384,30.6253411 281.821095,32.0285383 282.939037,33.7565748 L282.939037,28.5747501 L290.749957,28.5747501 L290.749957,28.57234 Z M280.115145,52.2352024 C281.757392,50.6469129 282.697885,48.5476714 282.939037,45.9350677 L282.939037,43.6454243 C282.697885,41.0304104 281.757392,38.9311689 280.117557,37.3452896 C278.472899,35.7545899 276.391755,34.9640604 273.866892,34.9640604 C271.18528,34.9640604 269.002852,35.8775076 267.31961,37.7068122 C265.638779,39.5361168 264.775455,41.8956546 264.739282,44.790246 C264.775455,47.6824272 265.638779,50.0443751 267.31961,51.8736797 C269.002852,53.7005742 271.18528,54.6164316 273.866892,54.6164316 C276.391755,54.6164316 278.472899,53.8210817 280.115145,52.2352024 Z M249.023394,32.7322606 C251.606134,35.6654143 252.898709,39.7843624 252.898709,45.0915149 C252.898709,46.1375204 252.877006,46.9184093 252.838421,47.4414121 L229.109046,47.4414121 C229.629935,49.7334657 230.700651,51.5314383 232.323605,52.8377401 C233.944148,54.144042 235.938476,54.7971929 238.301768,54.7971929 C239.919893,54.8022438 241.522738,54.4843153 243.016293,53.8620543 C244.50121,53.2523975 245.841871,52.3386065 246.951896,51.1795562 L251.155179,55.580492 C249.531133,57.3638318 247.5302,58.7634414 245.297592,59.6777486 C242.994589,60.6442192 240.443199,61.1262494 237.638599,61.1262494 C234.356518,61.1262494 231.462692,60.4441766 228.959532,59.077621 C226.507447,57.7622222 224.492679,55.7603263 223.162233,53.3173602 C221.799723,50.8469554 221.119674,48.0053874 221.119674,44.790246 C221.119674,41.5751046 221.80937,38.7214858 223.193583,36.2293897 C224.533058,33.7792794 226.543109,31.7611747 228.98847,30.4112852 C231.472338,29.0230382 234.293818,28.3313249 237.457735,28.3313249 C242.587042,28.3313249 246.440654,29.801517 249.023394,32.7322606 Z M245.750959,42.1969235 C245.668967,39.8253349 244.887634,37.9381867 243.406959,36.5306585 C241.926285,35.1231304 239.963306,34.4193663 237.520434,34.4193663 C235.236723,34.4193663 233.324386,35.1134898 231.781012,36.5017367 C230.24005,37.8875735 229.28991,39.7843624 228.930594,42.1969235 L245.750959,42.1969235 Z M212.633529,29.9895088 C214.495224,28.8832495 216.668005,28.3120437 219.151872,28.2710711 L219.151872,35.867867 C215.823972,35.6654143 213.17371,36.4390728 211.191439,38.1888424 C209.209168,39.9362019 208.218032,42.2981499 208.218032,45.269866 L208.218032,60.8249805 L200.409525,60.8249805 L200.409525,28.57234 L208.218032,28.57234 L208.218032,34.7808889 C209.298394,32.6936982 210.771834,31.0933579 212.631117,29.9895088 L212.633529,29.9895088 Z M194.559172,58.8317856 C191.995725,60.3983838 189.311701,61.184093 186.509512,61.184093 C183.745908,61.184093 181.481489,60.369462 179.721078,58.7426101 C177.958256,57.113348 177.07805,54.7128376 177.07805,51.5386687 L177.07805,21.0357978 L184.82627,20.1102999 L184.82627,29.897923 L194.01658,29.897923 L194.01658,35.6268519 L184.828682,35.6268519 L184.828682,50.1552421 C184.828682,51.6423052 185.106007,52.6979514 185.667891,53.3197703 C186.229776,53.9439994 187.066574,54.2549089 188.190343,54.2549089 C189.391281,54.2549089 190.915363,53.8114411 192.755354,52.9269157 L194.559172,58.8341958 L194.559172,58.8317856 Z M162.608919,28.57234 L170.357139,28.57234 L170.357139,46.6508825 C170.357139,57.2025236 163.016466,61.1262494 155.569687,61.1262494 C148.120496,61.1262494 140.782235,57.2025236 140.782235,46.6508825 L140.782235,28.5747501 L148.532866,28.5747501 L148.532866,46.9304601 C148.532866,50.9746934 151.540034,54.2549089 155.569687,54.2549089 C159.59934,54.2549089 162.606508,50.9771036 162.606508,46.9304601 L162.606508,28.57234 L162.608919,28.57234 Z M124.726322,20.9152903 C128.072833,22.7307028 130.86462,25.4184564 132.804921,28.6928475 C134.770311,31.9875239 135.749389,35.6461331 135.749389,39.666265 C135.749389,43.6839867 134.770311,47.3522365 132.807332,50.6661941 C130.865962,53.9626169 128.076394,56.6790269 124.728734,58.5329269 C121.304373,60.4610477 117.508637,61.4251081 113.343939,61.4251081 C109.176829,61.4251081 105.385917,60.4610477 101.961556,58.5329269 C98.6127975,56.6796574 95.8222984,53.9631515 93.8805462,50.6661941 C91.9175674,47.3522365 90.936078,43.6839867 90.936078,39.666265 C90.936078,35.6461331 91.9175674,31.9875239 93.8781346,28.6928475 C95.8189053,25.417986 98.6116043,22.7301566 101.959144,20.9152903 C105.383505,19.0281421 109.176829,18.0833629 113.341528,18.0833629 C117.508637,18.0833629 121.301961,19.0281421 124.726322,20.9152903 Z M106.314353,27.2178351 C104.143564,28.451517 102.340027,30.239888 101.088585,32.3996597 C99.8056554,34.5928971 99.1666021,37.0126887 99.1666021,39.666265 C99.1666021,42.3174311 99.817713,44.7516836 101.119935,46.9593819 C102.380112,49.129561 104.181357,50.9364251 106.348114,52.2038704 C108.530541,53.490891 110.901067,54.1319912 113.466927,54.1319912 C115.941879,54.1452385 118.372845,53.4782284 120.494101,52.2038704 C122.637694,50.9372472 124.409382,49.1283256 125.630643,46.9593819 C126.895384,44.7382329 127.54857,42.2217758 127.523688,39.666265 C127.523688,37.0150989 126.891869,34.5928971 125.630643,32.4020699 C124.407084,30.2505872 122.6347,28.4617474 120.494101,27.2178351 C118.366793,25.9607017 115.938254,25.3035199 113.466927,25.316226 C110.956661,25.3026721 108.488287,25.9591443 106.316764,27.2178351 L106.314353,27.2178351 Z M32.1070021,0 C43.1638298,0 59.8708533,3.4031332 67.6480113,11.2072021 C69.6182247,13.1859361 72.1961416,17.0614589 72.1961416,22.7373644 C72.1961416,32.8286666 64.0934281,48.3114766 55.146682,57.2916992 C50.5213831,61.93365 43.1638298,68 33.2669441,68 C23.5919184,68 16.2030154,61.4058269 14.0639955,59.2583824 C5.86964422,51.0349472 0,38.5527752 0,26.9141561 C0,19.570426 2.08596641,13.1473736 7.40819517,7.8088892 C12.3373459,2.86325937 20.8307259,4.28128819e-15 32.1070021,0 Z M44.9538778,39.4325417 C48.5596947,35.8213761 49.5310291,31.3741851 49.5310291,28.9264883 C49.5310291,27.1522565 49.0651613,24.548966 46.8476305,22.3311762 C43.4467954,18.9266948 39.6802541,17.9652655 35.5829467,17.9652655 C30.3931792,17.9652655 26.9061586,19.6071266 24.5838075,21.9340642 C22.7622643,23.7570641 21.1876311,26.5600717 21.1876311,30.5428042 C21.1876311,34.5232143 23.3073297,38.3689315 25.618034,40.679613 C27.7517087,42.8161225 31.1059569,44.397604 34.4834986,44.397604 C37.8610403,44.397604 41.3480609,43.0437072 44.9538778,39.4325417 Z" id="Shape"></path>
        </g>
    </g>
</svg>
